assets/logo.svg

<svg xmlns="http://www.w3.org/2000/svg" width="18" height="18" fill="none"><g clip-path="url(#a)"><mask id="b" width="14" height="18" x="2" y="0" maskUnits="userSpaceOnUse" style="mask-type:luminance"><path fill="#fff" d="M15.5.5h-13v17h13V.5Z"/></mask><g mask="url(#b)"><mask id="c" width="14" height="18" x="2" y="0" maskUnits="userSpaceOnUse" style="mask-type:luminance"><path fill="#fff" d="M15.5.5h-13v17h13V.5Z"/></mask><g fill="#040403" mask="url(#c)"><path d="M3.459 7.963h1.415v-.692c0-.772.084-1.349.254-1.729.175-.38.492-.689.952-.925.465-.242 1.052-.363 1.759-.363.725 0 1.436.103 2.13.311L9.626 6.26a5.266 5.266 0 0 0-1.17-.139c-.368 0-.634.084-.798.251-.157.162-.235.476-.235.943v.648h1.904v1.911H7.422v7.272H4.874V9.874H3.459v-1.91Z"/><path d="M15.128 7.938H3.242v2.125h11.886V7.937Z"/></g><path fill="#040403" d="M9 9.928h1.446v.692c0 .772.087 1.348.26 1.729.18.38.504.688.973.924.476.242 1.076.363 1.799.363.742 0 1.468-.103 2.179-.31l-.353-1.695a5.5 5.5 0 0 1-1.196.138c-.377 0-.649-.083-.816-.25-.16-.162-.24-.476-.24-.942v-.649h1.946v-1.91h-1.946V.75h-2.606v7.27H9v1.91Z"/></g></g><defs><clipPath id="a"><path fill="#fff" d="M2.5.5h13v17h-13z"/></clipPath></defs></svg>

<?xml version="1.0" encoding="UTF-8" standalone="no"?>
<svg
   width="18"
   height="18"
   fill="none"
   version="1.1"
   id="svg48"
   sodipodi:docname="logo.svg"
   inkscape:version="1.2.2 (732a01da63, 2022-12-09, custom)"
   xmlns:inkscape="http://www.inkscape.org/namespaces/inkscape"
   xmlns:sodipodi="http://sodipodi.sourceforge.net/DTD/sodipodi-0.dtd"
   xmlns="http://www.w3.org/2000/svg"
   xmlns:svg="http://www.w3.org/2000/svg">
  <sodipodi:namedview
     id="namedview50"
     pagecolor="#ffffff"
     bordercolor="#000000"
     borderopacity="0.25"
     inkscape:showpageshadow="2"
     inkscape:pageopacity="0.0"
     inkscape:pagecheckerboard="0"
     inkscape:deskcolor="#d1d1d1"
     showgrid="false"
     inkscape:zoom="30.28774"
     inkscape:cx="3.9950157"
     inkscape:cy="8.1386065"
     inkscape:window-width="1920"
     inkscape:window-height="1016"
     inkscape:window-x="0"
     inkscape:window-y="0"
     inkscape:window-maximized="1"
     inkscape:current-layer="svg48" />
  <g
     clip-path="url(#a)"
     id="g41"
     transform="matrix(1.0893738,0,0,1.0995119,-1.1109742,-0.80812734)">
    <mask
       id="b"
       width="14"
       height="18"
       x="2"
       y="0"
       maskUnits="userSpaceOnUse">
      <path
         fill="#ffffff"
         d="m 15.5,0.5 h -13 v 17 h 13 z"
         id="path25" />
    </mask>
    <g
       mask="url(#b)"
       id="g39">
      <mask
         id="c"
         width="14"
         height="18"
         x="2"
         y="0"
         maskUnits="userSpaceOnUse">
        <path
           fill="#ffffff"
           d="m 15.5,0.5 h -13 v 17 h 13 z"
           id="path28" />
      </mask>
      <g
         fill="#040403"
         mask="url(#c)"
         id="g35">
        <path
           d="M 3.459,7.963 H 4.874 V 7.271 C 4.874,6.499 4.958,5.922 5.128,5.542 5.303,5.162 5.62,4.853 6.08,4.617 6.545,4.375 7.132,4.254 7.839,4.254 c 0.725,0 1.436,0.103 2.13,0.311 L 9.626,6.26 A 5.266,5.266 0 0 0 8.456,6.121 C 8.088,6.121 7.822,6.205 7.658,6.372 7.501,6.534 7.423,6.848 7.423,7.315 V 7.963 H 9.327 V 9.874 H 7.422 v 7.272 H 4.874 V 9.874 H 3.459 v -1.91 z"
           id="path31" />
        <path
           d="M 15.128,7.938 H 3.242 v 2.125 H 15.128 V 7.937 Z"
           id="path33" />
      </g>
      <path
         fill="#040403"
         d="m 9,9.928 h 1.446 v 0.692 c 0,0.772 0.087,1.348 0.26,1.729 0.18,0.38 0.504,0.688 0.973,0.924 0.476,0.242 1.076,0.363 1.799,0.363 0.742,0 1.468,-0.103 2.179,-0.31 l -0.353,-1.695 a 5.5,5.5 0 0 1 -1.196,0.138 c -0.377,0 -0.649,-0.083 -0.816,-0.25 -0.16,-0.162 -0.24,-0.476 -0.24,-0.942 V 9.928 h 1.946 V 8.018 H 13.052 V 0.75 H 10.446 V 8.02 H 9 v 1.91 z"
         id="path37" />
    </g>
  </g>
  <defs
     id="defs46">
    <clipPath
       id="a">
      <path
         fill="#fff"
         d="M2.5.5h13v17h-13z"
         id="path43" />
    </clipPath>
  </defs>
</svg>
